X: 60
T: SHULE AROON
B: O'Neill's 60
M:  C
L: 1/8
Z: Transcribed by John Chambers <jc@trillian.mit.edu>
N: "Plaintively"
N: "Collected by J.O'Neill"
N: 2nd setting.
K:Am
AB \
| c2 c2 B2 B2 | (A>B) AG E3 G | G2 ({B}A>G) (GE) (cB) | A3 G E2 (FE) |
| (E>F) (ED) C2 (CD) | (EG) (AB) c2 (cd) | (ed) (cB) (cB) A^G | A4 A2 z2 ||
|| c4 B4 | A>B AG E2 z2 | G3 A (GE) (cB) | A3 G E3 (F>E) |
| (E>F) (ED) C2 (CD) | (EG) (AB) c2 (cd) | (ed) (cB) (cB) A^G | A4 A2 z2 ||


